svgs/solid/list-dropdown.svg

<svg xmlns="http://www.w3.org/2000/svg" viewBox="0 0 512 512"><!-- Font Awesome Pro 6.0.0-alpha2 by @fontawesome - https://fontawesome.com License - https://fontawesome.com/license (Commercial License) --><path d="M128 280H384C397.254 280 408 269.254 408 256C408 242.744 397.254 232 384 232H128C114.746 232 104 242.744 104 256C104 269.254 114.746 280 128 280ZM448 32H64C28.654 32 0 60.652 0 96V416C0 451.346 28.654 480 64 480H448C483.346 480 512 451.346 512 416V96C512 60.652 483.346 32 448 32ZM359.988 96H439.998C447.123 96 450.686 104.625 445.623 109.625L405.619 149.631C402.492 152.756 397.492 152.756 394.367 149.631L354.363 109.625C349.674 105 352.176 96 359.988 96ZM448 416H64V192H448V416ZM128 376H384C397.254 376 408 365.254 408 352C408 338.744 397.254 328 384 328H128C114.746 328 104 338.744 104 352C104 365.254 114.746 376 128 376Z"/></svg>

<svg xmlns="http://www.w3.org/2000/svg" viewBox="0 0 512 512"><!--! Font Awesome Pro 6.3.0 by @fontawesome - https://fontawesome.com License - https://fontawesome.com/license (Commercial License) Copyright 2023 Fonticons, Inc. --><path d="M64 32C28.7 32 0 60.7 0 96V416c0 35.3 28.7 64 64 64H448c35.3 0 64-28.7 64-64V96c0-35.3-28.7-64-64-64H64zM448 192V416H64V192H448zM436.7 96c7.1 0 10.7 8.6 5.7 13.7l-36.7 36.7c-3.1 3.1-8.2 3.1-11.3 0l-36.7-36.7c-5-5-1.5-13.7 5.7-13.7h73.4zM128 232c-13.3 0-24 10.7-24 24s10.7 24 24 24H384c13.3 0 24-10.7 24-24s-10.7-24-24-24H128zm0 96c-13.3 0-24 10.7-24 24s10.7 24 24 24H384c13.3 0 24-10.7 24-24s-10.7-24-24-24H128z"/></svg>
